Obsidian-SemiLight/actions/22s/key-enter.svg

<svg viewBox="0 0 22 22" xmlns="http://www.w3.org/2000/svg"><path d="m9 3v1 6h-6v1 8h1 15v-1-15h-9zm1 1h8v14h-14v-7h5 1zm5 1v9h-4v-2l-3 2.5 3 2.5v-2h5v-1-9z" fill="#4d4d4d"/></svg>

<svg xmlns="http://www.w3.org/2000/svg" viewBox="0 0 22 22">
  <defs id="defs3051">
    <style type="text/css" id="current-color-scheme">
      .ColorScheme-Text {
        color:#4d4d4d;
      }
      </style>
  </defs>
 <path 
     style="fill:currentColor;fill-opacity:1;stroke:none" 
     d="M 9 3 L 9 4 L 9 10 L 3 10 L 3 11 L 3 19 L 4 19 L 19 19 L 19 18 L 19 3 L 10 3 L 9 3 z M 10 4 L 18 4 L 18 18 L 4 18 L 4 11 L 9 11 L 10 11 L 10 4 z M 15 5 L 15 14 L 11 14 L 11 12 L 8 14.5 L 11 17 L 11 15 L 16 15 L 16 14 L 16 5 L 15 5 z "
     class="ColorScheme-Text"
     />
</svg>
